fs/building_bank_toolbox_20_regular.svg

<svg viewBox="0 0 20 20" fill="none" xmlns="http://www.w3.org/2000/svg" height="1em" width="1em">
  <path d="M8.99959 5.87413C9.45983 5.87413 9.83293 5.50103 9.83293 5.04079C9.83293 4.58055 9.45983 4.20746 8.99959 4.20746C8.53936 4.20746 8.16626 4.58055 8.16626 5.04079C8.16626 5.50103 8.53936 5.87413 8.99959 5.87413ZM2.49927 16.9991H8.99902V15.9991H2.99927V15.1658C2.99927 14.5214 3.5216 13.9991 4.16593 13.9991H8.99902V13.499C8.99902 12.936 9.18516 12.4164 9.49927 11.9985L9.49927 7.99909H10.9993L10.9993 11.049C11.0131 11.0462 11.027 11.0435 11.0409 11.0409C11.1572 10.413 11.5081 9.8675 11.9993 9.49866V7.99909H13.9993V8.99902H14.9993V7.99909H15.0922C15.9855 7.99909 16.3512 6.85167 15.6226 6.3348L9.77106 2.18338C9.30898 1.85555 8.69018 1.85554 8.22808 2.18336L2.37629 6.33479C1.64773 6.85165 2.01341 7.99909 2.90669 7.99909H2.99927V13.3397C2.39788 13.7247 1.99927 14.3987 1.99927 15.1658V16.4991C1.99927 16.7752 2.22313 16.9991 2.49927 16.9991ZM8.80669 2.99897C8.92222 2.91701 9.07692 2.91701 9.19244 2.99897L14.8308 6.99909H11.5014L11.4993 6.99908L11.4972 6.99909H3.16818L8.80669 2.99897ZM3.99927 13.0054V7.99909H5.99927L5.99927 12.9991H4.16593C4.10986 12.9991 4.05427 13.0012 3.99927 13.0054ZM8.49927 12.9991H6.99927L6.99927 7.99909H8.49927L8.49927 12.9991ZM11.999 11.999V11.499C11.999 10.6706 12.6706 9.99902 13.499 9.99902H15.499C16.3275 9.99902 16.999 10.6706 16.999 11.499V11.999H17.499C18.3274 11.999 18.999 12.6706 18.999 13.499V14.999H16.999V14.499C16.999 14.2229 16.7752 13.999 16.499 13.999C16.2229 13.999 15.999 14.2229 15.999 14.499V14.999H12.999V14.499C12.999 14.2229 12.7752 13.999 12.499 13.999C12.2229 13.999 11.999 14.2229 11.999 14.499V14.999H9.99902V13.499C9.99902 12.6706 10.6706 11.999 11.499 11.999H11.999ZM12.999 11.499V11.999H15.999V11.499C15.999 11.2229 15.7752 10.999 15.499 10.999H13.499C13.2229 10.999 12.999 11.2229 12.999 11.499ZM16.999 15.999H18.999V17.499C18.999 18.3274 18.3274 18.999 17.499 18.999H11.499C10.6706 18.999 9.99902 18.3274 9.99902 17.499V15.999H11.999V16.499C11.999 16.7752 12.2229 16.999 12.499 16.999C12.7752 16.999 12.999 16.7752 12.999 16.499V15.999H15.999V16.499C15.999 16.7752 16.2229 16.999 16.499 16.999C16.7752 16.999 16.999 16.7752 16.999 16.499V15.999Z" fill="#212121"/>
</svg>

<svg viewBox="0 0 20 20" fill="none" xmlns="http://www.w3.org/2000/svg" height="1em" width="1em">
  <path d="M9 5.874a.833.833 0 1 0 0-1.667.833.833 0 0 0 0 1.667ZM2.5 17h6.499v-1h-6v-.833c0-.645.523-1.167 1.167-1.167h4.833v-.5c0-.563.186-1.083.5-1.5V8H11v3.05a2.78 2.78 0 0 1 .042-.008A2.5 2.5 0 0 1 12 9.5V8h2v1h1V8h.093c.893 0 1.26-1.147.53-1.664l-5.85-4.152a1.333 1.333 0 0 0-1.544 0L2.376 6.335c-.728.517-.363 1.664.53 1.664H3v5.34c-.601.386-1 1.06-1 1.827v1.333a.5.5 0 0 0 .5.5ZM8.806 3a.333.333 0 0 1 .385 0l5.639 4H3.168l5.639-4ZM3.999 13.005V8h2v5H4.166c-.056 0-.112.002-.167.006ZM8.5 13H7V8h1.5v5Zm3.5-1v-.5a1.5 1.5 0 0 1 1.5-1.5h2a1.5 1.5 0 0 1 1.5 1.5v.5h.5a1.5 1.5 0 0 1 1.5 1.5V15h-2v-.5a.5.5 0 1 0-1 0v.5h-3v-.5a.5.5 0 1 0-1 0v.5h-2v-1.5a1.5 1.5 0 0 1 1.5-1.5h.5Zm1-.5v.5h3v-.5a.5.5 0 0 0-.5-.5h-2a.5.5 0 0 0-.5.5Zm4 4.5h2v1.5a1.5 1.5 0 0 1-1.5 1.5h-6a1.5 1.5 0 0 1-1.5-1.5V16h2v.5a.5.5 0 1 0 1 0V16h3v.5a.5.5 0 1 0 1 0V16Z" fill="#212121"/>
</svg>
